assets/symbols/mulberry/neither.svg

<svg height="850.394" viewBox="0 0 850.394 850.394" width="850.394" xmlns="http://www.w3.org/2000/svg"><g stroke="#231f20"><path d="m478.714 517.739h244.293v244.286h-244.293z" fill="#fff" stroke-width="21"/><g stroke-width="21"><path d="m240.657 271.59.004 180.093" fill="#fff"/><path d="m294.297 393.522-53.83 59.292-53.819-59.389" fill="none"/></g><path d="m119.288 517.739h244.296v244.286h-244.296z" fill="#fff" stroke-width="21"/><path d="m164.008 76.478 160.702 159.236m-167.143 1.752 159.245-160.702" fill="none" stroke-linecap="round" stroke-linejoin="round" stroke-width="28"/><g><g stroke-width="21"><path d="m601.361 270.974v180.092" fill="#fff"/><path d="m654.995 392.906-53.827 59.292-53.819-59.389" fill="none"/></g><path d="m524.709 75.861 160.706 159.237m-167.146 1.752 159.244-160.702" fill="none" stroke-linecap="round" stroke-linejoin="round" stroke-width="28"/></g></g><path d="m0 0h850.394v850.394h-850.394z" fill="none"/></svg>

<svg xmlns="http://www.w3.org/2000/svg" width="850.394" height="850.394" viewBox="0 0 850.394 850.394" overflow="visible"><path fill="#fff" stroke="#231f20" stroke-width="21" d="M478.714 517.739h244.293v244.286H478.714z"/><g stroke="#231f20" stroke-width="21"><path fill="#fff" d="M240.657 271.59l.004 180.093"/><path fill="none" d="M294.297 393.522l-53.83 59.292-53.819-59.389"/></g><path fill="#fff" stroke="#231f20" stroke-width="21" d="M119.288 517.739h244.296v244.286H119.288z"/><g fill="none" stroke="#231f20" stroke-width="28" stroke-linecap="round" stroke-linejoin="round"><path d="M164.008 76.478L324.71 235.714M157.567 237.466L316.812 76.764"/></g><g stroke="#231f20"><g stroke-width="21"><path fill="#fff" d="M601.361 270.974v180.092"/><path fill="none" d="M654.995 392.906l-53.827 59.292-53.819-59.389"/></g><g fill="none" stroke-width="28" stroke-linecap="round" stroke-linejoin="round"><path d="M524.709 75.861l160.706 159.237M518.269 236.85L677.513 76.148"/></g></g><path fill="none" d="M0 0h850.394v850.394H0z"/></svg>
